_theme_inc/images/logos/virtualboy.svg

<svg enable-background="new 0 0 566.929 142.564" height="142.564" viewBox="0 0 566.929 142.564" width="566.929" xmlns="http://www.w3.org/2000/svg"><g fill="#fe0016" transform="matrix(.89495817 0 0 .72709282 35.438492 22.262419)"><path d="m0 .016 29.727 142.532 29.573-142.532h-16.006l-13.567 80.108-13.72-80.108z"/><path d="m65.855.016h16.006v142.532h-16.006z"/><path d="m96.181 0v142.554h16.012v-73.655l22.266 73.653h14.762l-17.813-67.398c9.896-5.937 12.81-13.71 12.81-13.71v-45.283c-6.558-14.558-17.865-16.161-17.865-16.161zm16.012 14.51h16.012v49.536h-16.012z"/><path d="m149.24.016h47.867v14.481h-16.007v128.05h-16.006v-128.049h-15.854z"/><path d="m285.67 0-30.925 142.402v.15h15.862l3.353-19.213h22.366l3.202 19.213h16.012zm0 61.443 7.305 49.085h-15.813z"/><path d="m321.955.016h16.008v128.049h23.935v14.482h-39.941z"/><path d="m493.148.016h14.634l14.938 61.435 13.568-61.435h16.156l-22.408 83.842v58.689h-16.006v-58.688z"/><path d="m464.423.016c-18.193 0-24.041 16.146-24.041 16.146.15.229 0 107.181 0 110.23 2.412 17.326 24.041 16.156 24.041 16.156 24 0 23.992-16.156 23.992-16.156v-110.231c-6.205-16.944-23.992-16.145-23.992-16.145zm-8.031 16.145h16.013v111.881h-16.013z"/><path d="m203.356.016h16.16v126.374h16.159v-126.374h15.853v126.374s-5.183 16.158-23.323 16.158-24.849-16.158-24.849-16.158z"/><path d="m379.588 0v142.554h32.173c14.933-3.889 15.86-14.512 15.86-14.512s-.024-38.076-.024-47.918c-1.121-6.213-6.229-6.422-6.229-6.422s-.021-1.732 0-3.102c5.645-.432 6.254-6.555 6.254-6.555s-.023-38.039 0-47.885c-2.443-11.627-15.861-16.16-15.861-16.16zm16.061 16.26h16.11v47.785h-16.11zm-.05 62.247h16.16v49.535h-16.16z"/><path d="m539.72 128.066h11.125v1.656h-4.725v12.826h-1.602v-12.826h-4.801v-1.656z"/><path d="m552.447 142.548v-14.482h1.602l5.717 12.92 5.486-12.92h1.678v14.482h-1.678v-11.209l-4.73 11.209h-1.617l-4.854-11.209v11.209z"/></g></svg>

<?xml version="1.0" encoding="UTF-8" standalone="no"?>
<!-- Generator: Adobe Illustrator 16.0.3, SVG Export Plug-In . SVG Version: 6.00 Build 0)  -->

<svg
   xmlns:dc="http://purl.org/dc/elements/1.1/"
   xmlns:cc="http://creativecommons.org/ns#"
   xmlns:rdf="http://www.w3.org/1999/02/22-rdf-syntax-ns#"
   xmlns:svg="http://www.w3.org/2000/svg"
   xmlns="http://www.w3.org/2000/svg"
   xmlns:sodipodi="http://sodipodi.sourceforge.net/DTD/sodipodi-0.dtd"
   xmlns:inkscape="http://www.inkscape.org/namespaces/inkscape"
   version="1.1"
   id="svg2"
   x="0px"
   y="0px"
   width="566.929px"
   height="142.564px"
   viewBox="0 0 566.929 142.564"
   enable-background="new 0 0 566.929 142.564"
   xml:space="preserve"
   sodipodi:docname="virtualboy.svg"
   inkscape:version="0.92.4 (5da689c313, 2019-01-14)"><metadata
   id="metadata21"><rdf:RDF><cc:Work
       rdf:about=""><dc:format>image/svg+xml</dc:format><dc:type
         rdf:resource="http://purl.org/dc/dcmitype/StillImage" /></cc:Work></rdf:RDF></metadata><defs
   id="defs19" /><sodipodi:namedview
   pagecolor="#ffffff"
   bordercolor="#666666"
   borderopacity="1"
   objecttolerance="10"
   gridtolerance="10"
   guidetolerance="10"
   inkscape:pageopacity="0"
   inkscape:pageshadow="2"
   inkscape:window-width="640"
   inkscape:window-height="480"
   id="namedview17"
   showgrid="false"
   inkscape:zoom="1.2594169"
   inkscape:cx="50.670221"
   inkscape:cy="22.156381"
   inkscape:current-layer="svg2" />
<g
   id="g14"
   transform="matrix(0.89495817,0,0,0.72709282,35.438492,22.262419)">
	<path
   id="path2952"
   d="M 0,0.016 29.727,142.548 59.3,0.016 H 43.294 L 29.727,80.124 16.007,0.016 Z"
   inkscape:connector-curvature="0"
   style="fill:#fe0016" />
	<path
   id="path3726"
   d="M 65.855,0.016 H 81.861 V 142.548 H 65.855 Z"
   inkscape:connector-curvature="0"
   style="fill:#fe0016" />
	<path
   id="path3728"
   d="m 96.181,0 v 142.554 h 16.012 V 68.899 l 22.266,73.653 h 14.762 L 131.408,75.154 c 9.896,-5.937 12.81,-13.71 12.81,-13.71 V 16.161 C 137.66,1.603 126.353,0 126.353,0 Z m 16.012,14.51 h 16.012 v 49.536 h -16.012 z"
   inkscape:connector-curvature="0"
   style="fill:#fe0016" />
	<path
   id="path3733"
   d="m 149.24,0.016 h 47.867 V 14.497 H 181.1 v 128.05 H 165.094 V 14.498 H 149.24 Z"
   inkscape:connector-curvature="0"
   style="fill:#fe0016" />
	<path
   id="path3735"
   d="m 285.67,0 -30.925,142.402 v 0.15 h 15.862 l 3.353,-19.213 h 22.366 l 3.202,19.213 h 16.012 z m 0,61.443 7.305,49.085 h -15.813 z"
   inkscape:connector-curvature="0"
   style="fill:#fe0016" />
	<path
   id="path2882"
   d="m 321.955,0.016 h 16.008 v 128.049 h 23.935 v 14.482 h -39.941 z"
   inkscape:connector-curvature="0"
   style="fill:#fe0016" />
	<path
   id="path3660"
   d="m 493.148,0.016 h 14.634 L 522.72,61.451 536.288,0.016 h 16.156 l -22.408,83.842 v 58.689 H 514.03 V 83.859 Z"
   inkscape:connector-curvature="0"
   style="fill:#fe0016" />
	<path
   id="path3662"
   d="m 464.423,0.016 c -18.193,0 -24.041,16.146 -24.041,16.146 0.15,0.229 0,107.181 0,110.23 2.412,17.326 24.041,16.156 24.041,16.156 v 0 c 24,0 23.992,-16.156 23.992,-16.156 V 16.161 C 482.21,-0.783 464.423,0.016 464.423,0.016 Z m -8.031,16.145 h 16.013 v 111.881 h -16.013 z"
   inkscape:connector-curvature="0"
   style="fill:#fe0016" />
	<path
   id="path3667"
   d="m 203.356,0.016 h 16.16 V 126.39 h 16.159 V 0.016 h 15.853 V 126.39 c 0,0 -5.183,16.158 -23.323,16.158 -18.14,0 -24.849,-16.158 -24.849,-16.158 z"
   inkscape:connector-curvature="0"
   style="fill:#fe0016" />
	<path
   id="path3669"
   d="m 379.588,0 v 142.554 h 32.173 c 14.933,-3.889 15.86,-14.512 15.86,-14.512 0,0 -0.024,-38.076 -0.024,-47.918 -1.121,-6.213 -6.229,-6.422 -6.229,-6.422 0,0 -0.021,-1.732 0,-3.102 5.645,-0.432 6.254,-6.555 6.254,-6.555 0,0 -0.023,-38.039 0,-47.885 C 425.179,4.533 411.761,0 411.761,0 Z m 16.061,16.26 h 16.11 v 47.785 h -16.11 z m -0.05,62.247 h 16.16 v 49.535 h -16.16 z"
   inkscape:connector-curvature="0"
   style="fill:#fe0016" />
	<path
   id="path3699"
   d="m 539.72,128.066 h 11.125 v 1.656 h -4.725 v 12.826 h -1.602 v -12.826 h -4.801 v -1.656 z"
   inkscape:connector-curvature="0"
   style="fill:#fe0016" />
	<path
   id="path3713"
   d="m 552.447,142.548 v -14.482 h 1.602 l 5.717,12.92 5.486,-12.92 h 1.678 v 14.482 h -1.678 v -11.209 l -4.73,11.209 h -1.617 l -4.854,-11.209 v 11.209 z"
   inkscape:connector-curvature="0"
   style="fill:#fe0016" />
</g>
</svg>
